app/assets/images/payment_icons/klarna.svg

<svg xmlns="http://www.w3.org/2000/svg" width="38" height="24" viewBox="0 0 38 24" fill="none" aria-labelledby="pi-klarna" role="img"><title id="pi-klarna">Klarna</title><rect width="38" height="24" fill="#FFB3C7"/><path d="M34.117 13.184C33.63 13.184 33.235 13.584 33.235 14.076C33.235 14.569 33.63 14.969 34.117 14.969C34.605 14.969 35 14.569 35 14.076C35.0011 13.8407 34.9087 13.6145 34.7431 13.4473C34.5775 13.28 34.3523 13.1853 34.117 13.184V13.184ZM31.214 12.494C31.214 11.818 30.644 11.271 29.94 11.271C29.236 11.271 28.666 11.818 28.666 12.493C28.666 13.168 29.236 13.716 29.94 13.716C30.644 13.716 31.214 13.168 31.214 12.493V12.494ZM31.219 10.118H32.625V14.868H31.219V14.565C30.8095 14.8486 30.3231 15.0003 29.825 15C28.456 15 27.347 13.878 27.347 12.493C27.347 11.109 28.457 9.987 29.825 9.987C30.342 9.987 30.821 10.147 31.219 10.422V10.118V10.118ZM19.966 10.737V10.118H18.526V14.868H19.969V12.651C19.969 11.902 20.771 11.501 21.328 11.501H21.344V10.119C20.774 10.119 20.248 10.366 19.966 10.737V10.737ZM16.38 12.493C16.38 11.818 15.81 11.271 15.106 11.271C14.403 11.271 13.832 11.818 13.832 12.493C13.832 13.168 14.402 13.716 15.106 13.716C15.81 13.716 16.38 13.168 16.38 12.493ZM16.385 10.118H17.791V14.868H16.385V14.565C15.9752 14.8488 15.4885 15.0005 14.99 15C13.622 15 12.512 13.878 12.512 12.493C12.512 11.109 13.622 9.987 14.99 9.987C15.507 9.987 15.987 10.147 16.384 10.422V10.118H16.385ZM24.848 9.99C24.287 9.99 23.755 10.167 23.4 10.653V10.118H22V14.868H23.417V12.372C23.417 11.65 23.896 11.296 24.472 11.296C25.09 11.296 25.445 11.67 25.445 12.362V14.869H26.85V11.848C26.85 10.742 25.98 9.99 24.848 9.99V9.99ZM10.465 14.87H11.937V8H10.465V14.868V14.87ZM4 14.87H5.558V8H4V14.87V14.87ZM9.45 8C9.45395 8.72288 9.31529 9.43944 9.04194 10.1087C8.76859 10.7779 8.36592 11.3866 7.857 11.9L10.011 14.87H8.086L5.745 11.642L6.349 11.184C6.8417 10.8128 7.24086 10.3316 7.51465 9.7788C7.78845 9.226 7.92931 8.61688 7.926 8H9.45Z" fill="#0A0B09"/></svg>

<svg xmlns="http://www.w3.org/2000/svg" width="38" height="24" fill="none" aria-labelledby="pi-klarna" role="img" viewBox="0 0 38 24"><title id="pi-klarna">Klarna</title><path fill="#FFB3C7" d="M0 0h38v24H0z"/><path fill="#0A0B09" d="M34.117 13.184c-.487 0-.882.4-.882.892 0 .493.395.893.882.893.488 0 .883-.4.883-.893a.89.89 0 0 0-.883-.892m-2.903-.69c0-.676-.57-1.223-1.274-1.223s-1.274.547-1.274 1.222.57 1.223 1.274 1.223 1.274-.548 1.274-1.223zm.005-2.376h1.406v4.75h-1.406v-.303c-.41.284-.896.435-1.394.435-1.369 0-2.478-1.122-2.478-2.507 0-1.384 1.11-2.506 2.478-2.506.517 0 .996.16 1.394.435zm-11.253.619v-.619h-1.44v4.75h1.443v-2.217c0-.749.802-1.15 1.359-1.15h.016v-1.382c-.57 0-1.096.247-1.378.618m-3.586 1.756c0-.675-.57-1.222-1.274-1.222-.703 0-1.274.547-1.274 1.222s.57 1.223 1.274 1.223 1.274-.548 1.274-1.223m.005-2.375h1.406v4.75h-1.406v-.303c-.41.284-.897.436-1.395.435-1.368 0-2.478-1.122-2.478-2.507 0-1.384 1.11-2.506 2.478-2.506.517 0 .997.16 1.394.435v-.304zm8.463-.128c-.561 0-1.093.177-1.448.663v-.535H22v4.75h1.417v-2.496c0-.722.479-1.076 1.055-1.076.618 0 .973.374.973 1.066v2.507h1.405v-3.021c0-1.106-.87-1.858-2.002-1.858m-14.383 4.88h1.472V8h-1.472v6.87M4 14.87h1.558V8H4zM9.45 8a5.5 5.5 0 0 1-1.593 3.9l2.154 2.97H8.086l-2.341-3.228.604-.458A3.96 3.96 0 0 0 7.926 8z"/></svg>
